fs/person_tag_28_filled.svg

<svg viewBox="0 0 28 28" fill="none" xmlns="http://www.w3.org/2000/svg" height="1em" width="1em">
  <path d="M17.2219 25.1397C15.7287 25.686 13.9543 25.9944 12 25.9944C6.21053 25.9944 2 23.4283 2 19.7105V18.9961C2 17.3396 3.34315 15.9968 5 15.9968H13L13.0013 19.6788C13.0016 20.4739 13.3176 21.2364 13.88 21.7986L17.2219 25.1397ZM15.0903 13.1414C14.7899 13.2369 14.51 13.3784 14.2589 13.5576C13.5617 13.841 12.7991 13.9972 12 13.9972C8.68629 13.9972 6 11.3115 6 7.99861C6 4.68567 8.68629 2 12 2C15.3137 2 18 4.68567 18 7.99861C18 10.1815 16.8338 12.092 15.0903 13.1414ZM14 16.0011L14.0013 19.6784C14.0015 20.2085 14.2122 20.7168 14.5871 21.0916L19.911 26.4143C20.6921 27.1952 21.9584 27.1952 22.7394 26.4144L26.4164 22.7382C27.1975 21.9574 27.1975 20.6913 26.4164 19.9105L21.0925 14.5878C20.7176 14.2129 20.2091 14.0023 19.6789 14.0021L16.0007 14.0008C14.8956 14.0004 13.9996 14.8962 14 16.0011ZM17 17.9963C16.4477 17.9963 16 17.5487 16 16.9965C16 16.4444 16.4477 15.9968 17 15.9968C17.5523 15.9968 18 16.4444 18 16.9965C18 17.5487 17.5523 17.9963 17 17.9963Z" fill="#212121"/>
</svg>

<svg viewBox="0 0 28 28" fill="none" xmlns="http://www.w3.org/2000/svg" height="1em" width="1em">
  <path d="M17.222 25.14c-1.493.546-3.268.854-5.222.854-5.79 0-10-2.566-10-6.284v-.714a3 3 0 0 1 3-3h8l.001 3.683c0 .795.317 1.557.879 2.12l3.342 3.34Zm-2.132-12c-.3.096-.58.237-.831.417A6 6 0 1 1 18 7.999a5.995 5.995 0 0 1-2.91 5.142ZM14 16.001l.001 3.677a2 2 0 0 0 .586 1.414l5.324 5.322a2 2 0 0 0 2.828 0l3.677-3.676a1.999 1.999 0 0 0 0-2.828l-5.323-5.322a2 2 0 0 0-1.414-.586L16 14.001A2 2 0 0 0 14 16Zm3 1.995a1 1 0 1 1 0-2 1 1 0 0 1 0 2Z" fill="#212121"/>
</svg>
